**kern	**kern	**dynam
*part1	*part1	*part1
*staff2	*staff1	*
*I"Piano	*	*
*clefF4	*clefG2	*
*k[]	*k[]	*
=1	=1	=1
8DL	4B 4f	.
8G	.	.
8F#X	4r	.
8GJ	.	.
=	=	=
8DL	4B 4f	.
8G	.	.
8C	8.AL 8.e-X 8.f#X	.
8DJ	.	.
.	16AJk 16e- 16f#	.
=	=	=
8BBL	8G 8d 8g	.
8D	8r	.
8C#X	4r	.
8DJ	.	.
=	=	=
8BBL	2G 2d 2g	.
8D	.	.
8C#X	.	.
8DJ	.	.
=	=	=
*	*^	*
8AAL	4.c 4.cc	2d 2f#X	.
8D	.	.	.
8C#X	.	.	.
8DJ	8d 8dd	.	.
*	*v	*v	*
=	=	=
8r	((2c [2d [2fn 2ccn	.
!	!	!LO:DY:a
8GGGL	.	<
8DD	.	.
8GGJ	.	[[
=	=	=
*	*^	*
!	!	!	!LO:DY:a
8DL	4B)) 4b	2d] 2f]	>
8G	.	.	.
8B	4ryy	.	.
8dJ	.	.	]]
*	*v	*v	*
=	=	=
!	!	!LO:DY:a
8FL	4B 4d	p
8G	.	.
8E	8.cL 8.e	.
8GJ	.	.
.	16cJk 16e	.
=	=	=
*-	*-	*-
!!!system-decoration: {(s1,s2)}
